packages/devextreme-scss/images/icons/material/clipboardtasklist.svg

<!-- Generated by IcoMoon.io -->
<svg version="1.1" xmlns="http://www.w3.org/2000/svg" width="24" height="24" viewBox="0 0 24 24">
<path d="M19 2h-4.18c-0.42-1.16-1.52-2-2.82-2s-2.4 0.84-2.82 2h-4.18c-1.1 0-2 0.9-2 2v16c0 1.1 0.9 2 2 2h14c1.1 0 2-0.9 2-2v-16c0-1.1-0.9-2-2-2zM12 2c0.55 0 1 0.45 1 1s-0.45 1-1 1c-0.55 0-1-0.45-1-1s0.45-1 1-1zM7 6h10v-2h2v16h-14v-16h2v2zM12 17v-2h5v2h-5zM12 11v-2h5v2h-5zM11 9l-3 3-2-2 1-1 1 1 2-2 1 1z"></path>
<path d="M8 18l3-3-1-1-2 2-1-1-1 1 2 2z"></path>
</svg>

<svg width="24" height="24" viewBox="0 0 24 24" fill="none" xmlns="http://www.w3.org/2000/svg">
<title>clipboardtasklist</title>
<path d="M19 2H14.82C14.4 0.84 13.3 0 12 0C10.7 0 9.6 0.84 9.18 2H5C3.9 2 3 2.9 3 4V20C3 21.1 3.9 22 5 22H19C20.1 22 21 21.1 21 20V4C21 2.9 20.1 2 19 2ZM12 2C12.55 2 13 2.45 13 3C13 3.55 12.55 4 12 4C11.45 4 11 3.55 11 3C11 2.45 11.45 2 12 2ZM7 6H17V4H19V20H5V4H7V6ZM12 17V15H17V17H12ZM12 11V9H17V11H12ZM11 9L8 12L6 10L7 9L8 10L10 8L11 9Z" fill="black"/>
<path d="M8 18L11 15L10 14L8 16L7 15L6 16L8 18Z" fill="black"/>
</svg>
